X: 35130
T: Roly Gentle
R: waltz
M: 3/4
K: Ddorian
D2 DE FA|:f2 fe dc|A2 AG Ac|E2 ED EF|
D2 DF Ad|^c2 cA GE|A2 dA GE|1 D3 E FA:|2 D2 DA B^c||
d2 de fd|e^c A2 AG|F2 FEFA|EA FA EA|
d2 de fd|e^c A2 B2|c2 cA cd|ed ^cA GA|
d2 de fd|e^c A2 AG|F2 FE FA|EA FA EA|
d2 de fa|gf ed ^cA|c2 cA cd|ed ^cA GE||

